packages/core/src/svgs/mwc.svg

<svg width="24" height="24" viewBox="0 0 24 24" fill="none" xmlns="http://www.w3.org/2000/svg">
<g clip-path="url(#clip0_31_14526)">
<path d="M0 0H24V24H0V0Z" fill="url(#paint0_linear_31_14526)"/>
<path d="M16.8858 7.88594C18.5143 9.50594 19.6586 10.6502 20.3101 11.3145C20.4686 11.4774 20.5543 11.6874 20.5672 11.9402C20.5886 12.2574 20.4772 12.5402 20.2372 12.7802C19.2258 13.7874 18.1886 14.8245 17.1343 15.8959C16.7229 16.3117 16.2429 16.4145 15.7201 16.1102C15.6433 16.0473 15.569 15.9816 15.4972 15.9131L12.7672 13.1702C12.3429 12.7416 11.8972 12.6902 11.4258 13.0074C11.2372 13.1359 11.0486 13.3588 10.8686 13.5302C10.0783 14.317 9.29254 15.1085 8.51149 15.9045C8.30577 16.1145 8.10006 16.2345 7.89006 16.2645C7.29863 16.3502 7.04577 16.0802 6.66006 15.6902C5.70006 14.7088 4.73149 13.7402 3.76292 12.7759C3.57539 12.6053 3.45654 12.3722 3.42863 12.1202C3.38577 11.6788 3.56577 11.4217 3.87435 11.1131L6.99434 7.98879C7.05434 7.92879 7.13577 7.88594 7.20863 7.83451C7.77863 7.56451 8.18149 7.77451 8.60149 8.19879C9.49273 9.10607 10.3899 10.0075 11.2929 10.9031C11.4906 11.0891 11.7538 11.1894 12.0251 11.1822C12.2965 11.175 12.554 11.0608 12.7415 10.8645L15.5315 8.05736C15.9215 7.67165 16.3715 7.61165 16.8815 7.88594H16.8858Z" fill="white"/>
</g>
<defs>
<linearGradient id="paint0_linear_31_14526" x1="0" y1="12" x2="24" y2="12" gradientUnits="userSpaceOnUse">
<stop stop-color="#3B00CA"/>
<stop offset="1" stop-color="#9A00E6"/>
</linearGradient>
<clipPath id="clip0_31_14526">
<rect width="24" height="24" fill="white"/>
</clipPath>
</defs>
</svg>

<svg xmlns="http://www.w3.org/2000/svg" width="24" height="24" fill="none" viewBox="0 0 24 24"><g clip-path="url(#a)"><path fill="url(#b)" d="M0 0h24v24H0z"/><path fill="#fff" d="M16.886 7.886a470 470 0 0 1 3.424 3.429.93.93 0 0 1 .257.625c.022.317-.09.6-.33.84a432 432 0 0 0-3.103 3.116c-.411.416-.891.518-1.414.214a4 4 0 0 1-.223-.197l-2.73-2.743q-.635-.64-1.341-.163c-.189.129-.377.352-.557.523q-1.185 1.18-2.358 2.375-.306.315-.62.36c-.592.085-.845-.185-1.23-.575-.96-.981-1.93-1.95-2.898-2.914a1.04 1.04 0 0 1-.334-.656c-.043-.441.137-.698.445-1.007l3.12-3.124c.06-.06.142-.103.215-.154.57-.27.972-.06 1.392.364q1.338 1.361 2.692 2.704a1.03 1.03 0 0 0 1.449-.039l2.79-2.807c.39-.385.84-.445 1.35-.171z"/></g><defs><linearGradient id="b" x1="0" x2="24" y1="12" y2="12" gradientUnits="userSpaceOnUse"><stop stop-color="#3B00CA"/><stop offset="1" stop-color="#9A00E6"/></linearGradient><clipPath id="a"><path fill="#fff" d="M0 0h24v24H0z"/></clipPath></defs></svg>
